X: 345
T: The Cliffs of Albion
%R: Rreel
Z: 2014 John Chambers <jc:trillian.mit.edu>
B: Preston "Twenty four Country Dances for the Year 1798" p.153 #1
F: http://www.vwml.org/browse/browse-collections-dance-tune-books/browse-prestons1798# 2014-8-10
M: 2/4
L: 1/16
K: A
[|\
!f!(e>f!p!ec) !f!.A2.A2 | Bcde (c2!p!A2) | !f!(e>f!p!ec) !f!.A2.A2 | (BcdB) .A4 |
!f!(e>f!p!ec) !f!.A2.A2 | ABcd (c2!p!A2) | !f!(e>f!p!ec) .A2.A2 | Bcde A4 |]
[|\
!f!(d>e!p!dB) !f!.e2.e2 | (d>edB) .e4 | (d>edB) e2!f!e2 | !f!(e>!p!fec) !f!A4 |
(d>edB) .e2.e2 | (d>edB)  e4 | (d>edB) .e2.e2 | (e>fec) A4 |]
% - - - - - - - - - - - - - - - - - - - - - - - - -
%%begintext align
%% Cast down 1 Cu: turn your Partner half
%% round, up again & turn to your place, lead
%% down 2 Cu: up again 1 Cu: Allemande.
%%endtext
% - - - - - - - - - - - - - - - - - - - - - - - - -

%%sep 1 1 500
%%sep 1 1 500
